X: 10444
M: C|
L: 1/8
K: Gm
|:\
bgaf gdde | fdcB AFF2 | BAGF DGGA | BdcA BGG2 :|
|:\
bggf gdde | fdcB AFF2 | BAGF DGGA | BdcA BGG2 :|


